X:1
T:Title
%%score [ ( 1 2 ) ( 3 4 ) ]
L:1/8
Q:1/4=240
M:4/4
K:G
V:1 treble nm="Midi_74"
V:2 treble 
V:3 bass nm="Midi_74"
V:4 bass 
V:1
 G8 | B4 A4 | c8 || B8 | A4 G4 | G4 F4 |"^John Goss\n(1800-1880)" G8 |] %7
V:2
 D8 | D4 D4 | C8 || D8 | E4 D4 | C4 C4 | B,8 |] %7
V:3
 B,8 | G,4 A,4 | G,8 || F,8 | E,2 F,2 G,4 | A,4 A,4 | D,8 |] %7
V:4
 G,8 | G,4 F,4 | E,8 || D,8 | C,4 B,,4 | A,,4 A,,4 | G,,8 |] %7

